X:1
T:Title
L:1/8
M:4/4
I:linebreak $
K:D
V:1 treble nm="Voice"
V:1
"D" ddcB AGFE | DFFD FFDF |"A" CEEC EECE |"D" DFFD FAFA |"D" ddcB AGFE | DFFD FFDF |"A" CEEC EECE | %7
"D" DdAF D3 f ::"A" ecAc eece |"D" ddfd addf |"A" ecAc eece |"D" dfec dAdf |"A" ecAc eece | %13
"D" ddfd addf |"A" ecAc eece |"D" dfec d3 A :| %16
